;FLAVOR:Marlin
;TIME:984
;Filament used: 0.554229m
;Layer height: 0.2
;MINX:79.984
;MINY:95.221
;MINZ:0.2
;MAXX:140.015
;MAXY:124.779
;MAXZ:10.4
;Generated with Cura_SteamEngine 4.2.1
M140 S50
M105
M190 S50
M104 S200
M105
M109 S200
M82 ;absolute extrusion mode
M201 X500.00 Y500.00 Z100.00 E5000.00 ;Setup machine max acceleration
M203 X500.00 Y500.00 Z10.00 E50.00 ;Setup machine max feedrate
M204 P500.00 R1000.00 T500.00 ;Setup Print/Retract/Travel acceleration
M205 X8.00 Y8.00 Z0.40 E5.00 ;Setup Jerk
M220 S100 ;Reset Feedrate
M221 S100 ;Reset Flowrate

G28 ;Home

G92 E0 ;Reset Extruder
G1 Z2.0 F3000 ;Move Z Axis up
G1 X10.1 Y20 Z0.28 F5000.0 ;Move to start position
G1 X10.1 Y200.0 Z0.28 F1500.0 E15 ;Draw the first line
G1 X10.4 Y200.0 Z0.28 F5000.0 ;Move to side a little
G1 X10.4 Y20 Z0.28 F1500.0 E30 ;Draw the second line
G92 E0 ;Reset Extruder
G1 Z2.0 F3000 ;Move Z Axis up

M141 S28
G92 E0
G92 E0
G1 F2700 E-5
;LAYER_COUNT:52
;LAYER:0
M107
G0 F6000 X85.024 Y98.883 Z0.2
;TYPE:SKIRT
G1 F2700 E0
G1 F1200 X85.301 Y98.646 E0.01334
G1 X86.402 Y97.813 E0.06385
G1 X86.708 Y97.609 E0.0773
G1 X87.772 Y96.979 E0.12254
G1 X88.073 Y96.822 E0.13496
G1 X89.13 Y96.337 E0.17751
G1 X89.448 Y96.21 E0.19004
G1 X90.747 Y95.779 E0.24011
G1 X91.091 Y95.687 E0.25314
G1 X92.219 Y95.445 E0.29535
G1 X92.551 Y95.391 E0.30766
G1 X93.75 Y95.26 E0.35178
G1 X94.12 Y95.239 E0.36534
G1 X94.911 Y95.221 E0.39429
G1 X95.247 Y95.225 E0.40658
G1 X95.384 Y95.227 E0.4116
G1 X97.789 Y95.284 E0.49961
G1 X100.301 Y95.272 E0.59152
G1 X101.691 Y95.23 E0.64239
G1 X101.875 Y95.226 E0.64913
G1 X102.231 Y95.221 E0.66215
G1 X102.53 Y95.221 E0.67309
G1 X102.867 Y95.225 E0.68542
G1 X103.004 Y95.227 E0.69044
G1 X105.409 Y95.284 E0.77845
G1 X107.921 Y95.272 E0.87036
G1 X109.311 Y95.23 E0.92123
G1 X109.495 Y95.226 E0.92797
G1 X109.851 Y95.221 E0.94099
G1 X110.15 Y95.221 E0.95193
G1 X110.487 Y95.225 E0.96426
G1 X110.624 Y95.227 E0.96928
G1 X113.029 Y95.284 E1.05729
G1 X115.541 Y95.272 E1.1492
G1 X116.931 Y95.23 E1.20007
G1 X117.115 Y95.226 E1.20681
G1 X117.471 Y95.221 E1.21983
G1 X117.77 Y95.221 E1.23077
G1 X118.107 Y95.225 E1.2431
G1 X118.244 Y95.227 E1.24812
G1 X120.649 Y95.284 E1.33613
G1 X123.161 Y95.272 E1.42803
G1 X124.551 Y95.23 E1.47891
G1 X124.735 Y95.226 E1.48565
G1 X125.091 Y95.221 E1.49867
G1 X125.84 Y95.235 E1.52608
G1 X126.154 Y95.251 E1.53758
G1 X127.096 Y95.338 E1.57219
G1 X127.298 Y95.365 E1.57965
G1 X128.041 Y95.489 E1.60721
G1 X128.275 Y95.536 E1.61594
G1 X129.162 Y95.751 E1.64933
G1 X129.429 Y95.827 E1.65949
G1 X130.513 Y96.195 E1.70137
G1 X130.819 Y96.316 E1.71341
G1 X131.909 Y96.813 E1.75724
G1 X132.216 Y96.973 E1.76991
G1 X133.284 Y97.605 E1.81531
G1 X133.596 Y97.813 E1.82903
G1 X134.61 Y98.573 E1.87539
G1 X134.864 Y98.786 E1.88752
G1 X135.769 Y99.631 E1.93282
G1 X136.017 Y99.889 E1.94591
G1 X136.847 Y100.855 E1.99251
G1 X137.066 Y101.14 E2.00566
G1 X137.811 Y102.234 E2.05408
G1 X137.991 Y102.534 E2.06688
G1 X138.559 Y103.603 E2.11117
G1 X138.713 Y103.934 E2.12453
G1 X139.17 Y105.071 E2.16936
G1 X139.279 Y105.39 E2.18169
G1 X139.621 Y106.604 E2.22784
G1 X139.699 Y106.953 E2.24092
G1 X139.906 Y108.196 E2.28702
G1 X139.94 Y108.502 E2.29829
G1 X140.01 Y109.629 E2.3396
G1 X140.015 Y110.021 E2.35394
G1 X139.955 Y111.354 E2.40276
G1 X139.921 Y111.683 E2.41486
G1 X139.736 Y112.868 E2.45874
G1 X139.664 Y113.211 E2.47156
G1 X139.365 Y114.343 E2.5144
G1 X139.293 Y114.569 E2.52308
G1 X139.072 Y115.199 E2.5475
G1 X138.983 Y115.431 E2.5566
G1 X138.62 Y116.277 E2.59028
G1 X138.532 Y116.461 E2.59774
G1 X138.082 Y117.308 E2.63283
G1 X137.889 Y117.638 E2.64682
G1 X137.132 Y118.773 E2.69673
G1 X136.921 Y119.052 E2.70953
G1 X136.093 Y120.029 E2.75638
G1 X135.857 Y120.278 E2.76893
G1 X135.012 Y121.084 E2.81166
G1 X134.731 Y121.326 E2.82523
G1 X133.623 Y122.169 E2.87616
G1 X133.317 Y122.374 E2.88964
G1 X132.256 Y123.006 E2.93482
G1 X131.953 Y123.165 E2.94734
G1 X130.877 Y123.661 E2.99069
G1 X130.562 Y123.787 E3.0031
G1 X129.255 Y124.221 E3.05349
G1 X128.907 Y124.314 E3.06666
G1 X127.781 Y124.555 E3.10879
G1 X127.449 Y124.609 E3.1211
G1 X126.25 Y124.74 E3.16523
G1 X125.88 Y124.761 E3.17879
G1 X125.089 Y124.779 E3.20773
G1 X124.753 Y124.775 E3.22003
G1 X124.616 Y124.773 E3.22504
G1 X122.211 Y124.716 E3.31305
G1 X119.699 Y124.728 E3.40496
G1 X118.309 Y124.77 E3.45584
G1 X118.125 Y124.774 E3.46257
G1 X117.769 Y124.779 E3.4756
G1 X117.47 Y124.779 E3.48654
G1 X117.133 Y124.775 E3.49887
G1 X116.996 Y124.773 E3.50388
G1 X114.591 Y124.716 E3.59189
G1 X112.079 Y124.728 E3.6838
G1 X110.689 Y124.77 E3.73468
G1 X110.505 Y124.774 E3.74141
G1 X110.149 Y124.779 E3.75444
G1 X109.85 Y124.779 E3.76538
G1 X109.513 Y124.775 E3.77771
G1 X109.376 Y124.773 E3.78272
G1 X106.971 Y124.716 E3.87073
G1 X104.459 Y124.728 E3.96264
G1 X103.069 Y124.77 E4.01352
G1 X102.885 Y124.774 E4.02025
G1 X102.529 Y124.779 E4.03328
G1 X102.23 Y124.779 E4.04422
G1 X101.893 Y124.775 E4.05655
G1 X101.756 Y124.773 E4.06156
G1 X99.351 Y124.716 E4.14957
G1 X96.839 Y124.728 E4.24148
G1 X95.449 Y124.77 E4.29236
G1 X95.265 Y124.774 E4.29909
G1 X94.909 Y124.779 E4.31212
G1 X94.16 Y124.765 E4.33952
G1 X93.846 Y124.749 E4.35103
G1 X92.904 Y124.662 E4.38564
G1 X92.702 Y124.635 E4.39309
G1 X91.996 Y124.518 E4.41928
G1 X91.763 Y124.472 E4.42796
G1 X90.811 Y124.242 E4.4638
G1 X90.543 Y124.165 E4.474
G1 X89.468 Y123.798 E4.51556
G1 X89.156 Y123.674 E4.52784
G1 X88.07 Y123.176 E4.57155
G1 X87.766 Y123.017 E4.5841
G1 X86.699 Y122.384 E4.62949
G1 X86.382 Y122.172 E4.64345
G1 X85.348 Y121.392 E4.69083
G1 X85.096 Y121.179 E4.7029
G1 X84.222 Y120.36 E4.74673
G1 X83.979 Y120.107 E4.75956
G1 X83.143 Y119.134 E4.80649
G1 X82.923 Y118.847 E4.81972
G1 X82.175 Y117.744 E4.86848
G1 X81.991 Y117.436 E4.88161
G1 X81.433 Y116.382 E4.92524
G1 X81.281 Y116.055 E4.93843
G1 X80.812 Y114.882 E4.98465
G1 X80.706 Y114.568 E4.99678
G1 X80.37 Y113.36 E5.04265
G1 X80.292 Y113.006 E5.05591
G1 X80.088 Y111.759 E5.10214
G1 X80.053 Y111.434 E5.1141
G1 X79.987 Y110.29 E5.15603
G1 X79.984 Y109.912 E5.16986
G1 X80.05 Y108.583 E5.21854
G1 X80.086 Y108.249 E5.23083
G1 X80.277 Y107.063 E5.27478
G1 X80.347 Y106.737 E5.28698
G1 X80.642 Y105.635 E5.32872
G1 X80.719 Y105.395 E5.33794
G1 X80.936 Y104.777 E5.3619
G1 X81.021 Y104.556 E5.37056
G1 X81.394 Y103.693 E5.40496
G1 X81.485 Y103.504 E5.41264
G1 X81.937 Y102.658 E5.44773
G1 X82.13 Y102.33 E5.46165
G1 X82.897 Y101.188 E5.51198
G1 X83.105 Y100.915 E5.52454
G1 X83.882 Y99.998 E5.56851
G1 X84.124 Y99.741 E5.58143
G1 X85.024 Y98.883 E5.62692
G0 F6000 X85.31 Y99.218
G1 F1200 X85.587 Y98.981 E5.64026
G1 X86.646 Y98.179 E5.68886
G1 X86.952 Y97.975 E5.70232
G1 X87.976 Y97.369 E5.74585
G1 X88.277 Y97.212 E5.75827
G1 X89.293 Y96.746 E5.79916
G1 X89.611 Y96.619 E5.81169
G1 X90.86 Y96.204 E5.85984
G1 X91.204 Y96.112 E5.87287
G1 X92.29 Y95.879 E5.91351
G1 X92.622 Y95.825 E5.92582
G1 X93.775 Y95.699 E5.96825
G1 X94.145 Y95.678 E5.98181
G1 X94.906 Y95.661 E6.00966
G1 X95.242 Y95.665 E6.02195
G1 X95.374 Y95.667 E6.02678
G1 X97.782 Y95.724 E6.11491
G1 X100.317 Y95.712 E6.20765
G1 X101.704 Y95.67 E6.25842
G1 X101.881 Y95.666 E6.2649
G1 X102.237 Y95.661 E6.27792
G1 X102.525 Y95.661 E6.28846
G1 X102.862 Y95.665 E6.30079
G1 X102.994 Y95.667 E6.30562
G1 X105.402 Y95.724 E6.39375
G1 X107.937 Y95.712 E6.48649
G1 X109.324 Y95.67 E6.53726
G1 X109.501 Y95.666 E6.54374
G1 X109.857 Y95.661 E6.55676
G1 X110.145 Y95.661 E6.5673
G1 X110.482 Y95.665 E6.57963
G1 X110.614 Y95.667 E6.58446
G1 X113.022 Y95.724 E6.67259
G1 X115.557 Y95.712 E6.76533
G1 X116.944 Y95.67 E6.8161
G1 X117.121 Y95.666 E6.82258
G1 X117.477 Y95.661 E6.8356
G1 X117.765 Y95.661 E6.84614
G1 X118.102 Y95.665 E6.85847
G1 X118.234 Y95.667 E6.8633
G1 X120.642 Y95.724 E6.95143
G1 X123.177 Y95.712 E7.04417
G1 X124.564 Y95.67 E7.09494
G1 X124.741 Y95.666 E7.10142
G1 X125.097 Y95.661 E7.11444
G1 X125.818 Y95.674 E7.14083
G1 X126.132 Y95.69 E7.15233
G1 X127.038 Y95.774 E7.18562
G1 X127.24 Y95.801 E7.19307
G1 X127.955 Y95.92 E7.21959
G1 X128.189 Y95.967 E7.22833
G1 X129.042 Y96.174 E7.26044
G1 X129.309 Y96.25 E7.2706
G1 X130.352 Y96.604 E7.31089
G1 X130.658 Y96.725 E7.32293
G1 X131.706 Y97.204 E7.36509
G1 X132.013 Y97.364 E7.37776
G1 X133.04 Y97.971 E7.4214
G1 X133.352 Y98.179 E7.43512
G1 X134.327 Y98.91 E7.4797
G1 X134.581 Y99.123 E7.49183
G1 X135.451 Y99.936 E7.5354
G1 X135.699 Y100.194 E7.54849
G1 X136.499 Y101.123 E7.59334
G1 X136.718 Y101.408 E7.60649
G1 X137.434 Y102.46 E7.65305
G1 X137.614 Y102.76 E7.66585
G1 X138.16 Y103.789 E7.70847
G1 X138.314 Y104.12 E7.72183
G1 X138.754 Y105.213 E7.76493
G1 X138.863 Y105.532 E7.77727
G1 X139.192 Y106.7 E7.82166
G1 X139.27 Y107.049 E7.83475
G1 X139.469 Y108.244 E7.87907
G1 X139.503 Y108.55 E7.89033
G1 X139.57 Y109.634 E7.93007
G1 X139.575 Y110.026 E7.94441
G1 X139.517 Y111.309 E7.9914
G1 X139.483 Y111.638 E8.0035
G1 X139.305 Y112.777 E8.04568
G1 X139.233 Y113.12 E8.0585
G1 X138.946 Y114.209 E8.0997
G1 X138.874 Y114.435 E8.10838
G1 X138.662 Y115.042 E8.1319
G1 X138.573 Y115.274 E8.141
G1 X138.223 Y116.087 E8.17338
G1 X138.135 Y116.271 E8.18084
G1 X137.703 Y117.086 E8.21459
G1 X137.51 Y117.416 E8.22858
G1 X136.781 Y118.507 E8.27658
G1 X136.57 Y118.786 E8.28938
G1 X135.773 Y119.727 E8.3345
G1 X135.537 Y119.976 E8.34705
G1 X134.724 Y120.751 E8.38814
G1 X134.443 Y120.993 E8.40171
G1 X133.378 Y121.804 E8.45069
G1 X133.072 Y122.009 E8.46416
G1 X132.052 Y122.616 E8.50759
G1 X131.749 Y122.775 E8.52011
G1 X130.713 Y123.252 E8.56183
G1 X130.398 Y123.378 E8.57425
G1 X129.142 Y123.796 E8.62268
G1 X128.794 Y123.889 E8.63586
G1 X127.71 Y124.121 E8.67641
G1 X127.378 Y124.175 E8.68872
G1 X126.225 Y124.301 E8.73115
G1 X125.855 Y124.322 E8.74471
G1 X125.094 Y124.339 E8.77256
G1 X124.758 Y124.335 E8.78486
G1 X124.626 Y124.333 E8.78969
G1 X122.218 Y124.276 E8.87781
G1 X119.683 Y124.288 E8.97056
G1 X118.296 Y124.33 E9.02132
G1 X118.119 Y124.334 E9.0278
G1 X117.763 Y124.339 E9.04083
G1 X117.475 Y124.339 E9.05136
G1 X117.138 Y124.335 E9.0637
G1 X117.006 Y124.333 E9.06852
G1 X114.598 Y124.276 E9.15665
G1 X112.063 Y124.288 E9.2494
G1 X110.676 Y124.33 E9.30016
G1 X110.499 Y124.334 E9.30664
G1 X110.143 Y124.339 E9.31967
G1 X109.855 Y124.339 E9.3302
G1 X109.518 Y124.335 E9.34253
G1 X109.386 Y124.333 E9.34736
G1 X106.978 Y124.276 E9.43549
G1 X104.443 Y124.288 E9.52824
G1 X103.056 Y124.33 E9.579
G1 X102.879 Y124.334 E9.58548
G1 X102.523 Y124.339 E9.59851
G1 X102.235 Y124.339 E9.60904
G1 X101.898 Y124.335 E9.62137
G1 X101.766 Y124.333 E9.6262
G1 X99.358 Y124.276 E9.71433
G1 X96.823 Y124.288 E9.80708
G1 X95.436 Y124.33 E9.85784
G1 X95.259 Y124.334 E9.86432
G1 X94.903 Y124.339 E9.87735
G1 X94.182 Y124.326 E9.90373
G1 X93.868 Y124.31 E9.91523
G1 X92.962 Y124.226 E9.94852
G1 X92.76 Y124.199 E9.95598
G1 X92.081 Y124.087 E9.98116
G1 X91.848 Y124.041 E9.98985
G1 X90.933 Y123.819 E10.02429
G1 X90.665 Y123.742 E10.03449
G1 X89.63 Y123.389 E10.0745
G1 X89.318 Y123.265 E10.08679
G1 X88.274 Y122.786 E10.12881
G1 X87.97 Y122.627 E10.14136
G1 X86.943 Y122.018 E10.18505
G1 X86.626 Y121.806 E10.199
G1 X85.632 Y121.056 E10.24456
G1 X85.38 Y120.843 E10.25663
G1 X84.539 Y120.055 E10.29879
G1 X84.296 Y119.802 E10.31163
G1 X83.492 Y118.866 E10.35677
G1 X83.272 Y118.579 E10.37
G1 X82.553 Y117.519 E10.41686
G1 X82.369 Y117.211 E10.42999
G1 X81.832 Y116.197 E10.47197
G1 X81.68 Y115.87 E10.48516
G1 X81.229 Y114.741 E10.52964
G1 X81.123 Y114.427 E10.54177
G1 X80.8 Y113.265 E10.58589
G1 X80.722 Y112.911 E10.59915
G1 X80.526 Y111.712 E10.6436
G1 X80.491 Y111.387 E10.65556
G1 X80.427 Y110.286 E10.69591
G1 X80.424 Y109.908 E10.70974
G1 X80.488 Y108.63 E10.75656
G1 X80.524 Y108.296 E10.76885
G1 X80.707 Y107.156 E10.81109
G1 X80.777 Y106.83 E10.82329
G1 X81.061 Y105.769 E10.86347
G1 X81.138 Y105.529 E10.87269
G1 X81.347 Y104.935 E10.89573
G1 X81.432 Y104.714 E10.90439
G1 X81.791 Y103.884 E10.93748
G1 X81.882 Y103.695 E10.94515
G1 X82.316 Y102.881 E10.9789
G1 X82.509 Y102.553 E10.99283
G1 X83.247 Y101.455 E11.04123
G1 X83.455 Y101.182 E11.05379
G1 X84.203 Y100.299 E11.09613
G1 X84.445 Y100.042 E11.10904
G1 X85.31 Y99.218 E11.15275
G0 F6000 X85.596 Y99.552
G1 F1200 X85.873 Y99.315 E11.16609
G1 X86.89 Y98.545 E11.21276
G1 X87.196 Y98.341 E11.22621
G1 X88.179 Y97.759 E11.26801
G1 X88.48 Y97.602 E11.28043
G1 X89.456 Y97.154 E11.31972
G1 X89.774 Y97.027 E11.33224
G1 X90.974 Y96.629 E11.3785
G1 X91.318 Y96.537 E11.39153
G1 X92.361 Y96.313 E11.43056
G1 X92.693 Y96.259 E11.44286
G1 X93.8 Y96.138 E11.48361
G1 X94.17 Y96.117 E11.49716
G1 X94.901 Y96.101 E11.52391
G1 X95.237 Y96.105 E11.53621
G1 X95.363 Y96.107 E11.54082
G1 X97.773 Y96.164 E11.62902
G1 X100.332 Y96.152 E11.72264
G1 X101.717 Y96.11 E11.77334
G1 X101.887 Y96.106 E11.77956
G1 X102.243 Y96.101 E11.79258
G1 X102.52 Y96.101 E11.80272
G1 X102.857 Y96.105 E11.81505
G1 X102.983 Y96.107 E11.81966
G1 X105.393 Y96.164 E11.90786
G1 X107.952 Y96.152 E12.00148
G1 X109.337 Y96.11 E12.05218
G1 X109.507 Y96.106 E12.0584
G1 X109.863 Y96.101 E12.07142
G1 X110.14 Y96.101 E12.08156
G1 X110.477 Y96.105 E12.09389
G1 X110.603 Y96.107 E12.0985
G1 X113.013 Y96.164 E12.1867
G1 X115.572 Y96.152 E12.28032
G1 X116.957 Y96.11 E12.33102
G1 X117.127 Y96.106 E12.33724
G1 X117.483 Y96.101 E12.35026
G1 X117.76 Y96.101 E12.3604
G1 X118.097 Y96.105 E12.37273
G1 X118.223 Y96.107 E12.37734
G1 X120.633 Y96.164 E12.46554
G1 X123.192 Y96.152 E12.55916
G1 X124.577 Y96.11 E12.60986
G1 X124.747 Y96.106 E12.61608
G1 X125.103 Y96.101 E12.6291
G1 X125.795 Y96.114 E12.65443
G1 X126.109 Y96.13 E12.66593
G1 X126.979 Y96.21 E12.69789
G1 X127.181 Y96.237 E12.70535
G1 X127.868 Y96.352 E12.73083
G1 X128.102 Y96.399 E12.73957
G1 X128.921 Y96.597 E12.77039
G1 X129.188 Y96.673 E12.78055
G1 X130.19 Y97.013 E12.81926
G1 X130.496 Y97.134 E12.8313
G1 X131.503 Y97.594 E12.8718
G1 X131.81 Y97.754 E12.88447
G1 X132.796 Y98.337 E12.92638
G1 X133.108 Y98.545 E12.9401
G1 X134.045 Y99.247 E12.98293
G1 X134.299 Y99.46 E12.99506
G1 X135.134 Y100.241 E13.03689
G1 X135.382 Y100.499 E13.04998
G1 X136.15 Y101.391 E13.09305
G1 X136.369 Y101.676 E13.1062
G1 X137.057 Y102.686 E13.15091
G1 X137.237 Y102.986 E13.16371
G1 X137.761 Y103.974 E13.20462
G1 X137.915 Y104.305 E13.21798
G1 X138.337 Y105.355 E13.25938
G1 X138.446 Y105.674 E13.27172
G1 X138.762 Y106.796 E13.31436
G1 X138.84 Y107.145 E13.32745
G1 X139.032 Y108.293 E13.37003
G1 X139.066 Y108.599 E13.38129
G1 X139.13 Y109.64 E13.41945
G1 X139.135 Y110.032 E13.4338
G1 X139.08 Y111.264 E13.47891
G1 X139.046 Y111.593 E13.49102
G1 X138.875 Y112.687 E13.53153
G1 X138.803 Y113.03 E13.54435
G1 X138.527 Y114.076 E13.58393
G1 X138.455 Y114.302 E13.59261
G1 X138.251 Y114.884 E13.61517
G1 X138.162 Y115.116 E13.62426
G1 X137.826 Y115.897 E13.65537
G1 X137.738 Y116.081 E13.66283
G1 X137.323 Y116.864 E13.69525
G1 X137.13 Y117.194 E13.70924
G1 X136.43 Y118.242 E13.75535
G1 X136.219 Y118.521 E13.76814
G1 X135.454 Y119.424 E13.81144
G1 X135.218 Y119.673 E13.82399
G1 X134.437 Y120.417 E13.86346
G1 X134.156 Y120.659 E13.87703
G1 X133.133 Y121.438 E13.92407
G1 X132.827 Y121.643 E13.93755
G1 X131.847 Y122.226 E13.97926
G1 X131.544 Y122.385 E13.99178
G1 X130.55 Y122.844 E14.03184
G1 X130.235 Y122.97 E14.04425
G1 X129.028 Y123.371 E14.09079
G1 X128.68 Y123.464 E14.10396
G1 X127.639 Y123.687 E14.14292
G1 X127.307 Y123.741 E14.15522
G1 X126.2 Y123.862 E14.19596
G1 X125.83 Y123.883 E14.20952
G1 X125.099 Y123.899 E14.23627
G1 X124.763 Y123.895 E14.24857
G1 X124.637 Y123.893 E14.25318
G1 X122.227 Y123.836 E14.34137
G1 X119.668 Y123.848 E14.435
G1 X118.283 Y123.89 E14.48569
G1 X118.113 Y123.894 E14.49192
G1 X117.757 Y123.899 E14.50494
G1 X117.48 Y123.899 E14.51508
G1 X117.143 Y123.895 E14.52741
G1 X117.017 Y123.893 E14.53202
G1 X114.607 Y123.836 E14.62021
G1 X112.048 Y123.848 E14.71384
G1 X110.663 Y123.89 E14.76453
G1 X110.493 Y123.894 E14.77076
G1 X110.137 Y123.899 E14.78378
G1 X109.86 Y123.899 E14.79392
G1 X109.523 Y123.895 E14.80625
G1 X109.397 Y123.893 E14.81086
G1 X106.987 Y123.836 E14.89905
G1 X104.428 Y123.848 E14.99268
G1 X103.043 Y123.89 E15.04337
G1 X102.873 Y123.894 E15.0496
G1 X102.517 Y123.899 E15.06262
G1 X102.24 Y123.899 E15.07276
G1 X101.903 Y123.895 E15.08509
