;FLAVOR:Marlin
;TIME:934
;Filament used: 0.427558m
;Layer height: 0.2
;MINX:99.683
;MINY:99.681
;MINZ:0.2
;MAXX:135.316
;MAXY:135.314
;MAXZ:5.4
;Generated with Cura_SteamEngine 4.1.0
M140 S60
M105
M190 S60
M104 S200
M105
M109 S200
M82 ;absolute extrusion mode
; Ender 3 Custom Start G-code
G28 ; Home all axes
G92 E0 ; Reset Extruder
G1 Z2.0 F3000 ; Move Z Axis up little to prevent scratching of Heat Bed
G1 X0.1 Y20 Z0.3 F5000.0 ; Move to start position
G1 X0.1 Y200.0 Z0.3 F1500.0 E15 ; Draw the first line
G1 X0.4 Y200.0 Z0.3 F5000.0 ; Move to side a little
G1 X0.4 Y20 Z0.3 F1500.0 E30 ; Draw the second line
G92 E0 ; Reset Extruder
G1 Z2.0 F3000 ; Move Z Axis up little to prevent scratching of Heat Bed
; End of custom start GCode
G92 E0
G92 E0
G1 F2400 E-5
;LAYER_COUNT:27
;LAYER:0
M107
M204 S500
M205 X10 Y10
G0 F3600 X102.111 Y102.12 Z0.2
;TYPE:SKIRT
G1 F2400 E0
G1 F1800 X102.398 Y101.846 E0.0132
G1 X102.942 Y101.382 E0.03698
G1 X103.497 Y101.003 E0.05933
G1 X103.853 Y100.787 E0.07318
G1 X104.484 Y100.451 E0.09696
G1 X105.131 Y100.194 E0.12011
G1 X105.526 Y100.061 E0.13398
G1 X106.215 Y99.871 E0.15775
G1 X106.865 Y99.765 E0.17965
G1 X107.272 Y99.72 E0.19327
G1 X108.089 Y99.682 E0.22047
G1 X109.441 Y99.706 E0.26545
G1 X111.498 Y99.724 E0.33387
G1 X112.86 Y99.695 E0.37918
G1 X112.934 Y99.694 E0.38164
G1 X114.255 Y99.681 E0.42558
G1 X114.431 Y99.682 E0.43143
G1 X115.788 Y99.706 E0.47657
G1 X117.848 Y99.724 E0.54509
G1 X119.21 Y99.695 E0.5904
G1 X119.284 Y99.694 E0.59286
G1 X120.605 Y99.681 E0.6368
G1 X120.781 Y99.682 E0.64266
G1 X122.138 Y99.706 E0.6878
G1 X124.198 Y99.724 E0.75632
G1 X125.56 Y99.695 E0.80163
G1 X125.634 Y99.694 E0.80409
G1 X126.955 Y99.681 E0.84803
G1 X127.67 Y99.714 E0.87183
G1 X128.163 Y99.784 E0.88839
G1 X128.438 Y99.834 E0.89769
G1 X128.767 Y99.903 E0.90887
G1 X129.257 Y100.019 E0.92562
G1 X129.943 Y100.223 E0.94942
G1 X130.602 Y100.501 E0.97321
G1 X130.958 Y100.69 E0.98662
G1 X131.357 Y100.918 E1.0019
G1 X131.958 Y101.307 E1.02571
G1 X132.59 Y101.835 E1.05311
G1 X132.871 Y102.102 E1.066
G1 X133.362 Y102.623 E1.08981
G1 X133.738 Y103.118 E1.11048
G1 X133.962 Y103.444 E1.12364
G1 X134.333 Y104.055 E1.14741
G1 X134.601 Y104.621 E1.16824
G1 X134.764 Y105.015 E1.18242
G1 X135 Y105.691 E1.20624
G1 X135.165 Y106.425 E1.23126
G1 X135.231 Y106.827 E1.24481
G1 X135.308 Y107.538 E1.2686
G1 X135.314 Y108.005 E1.28413
G1 X135.295 Y108.874 E1.31304
G1 X135.271 Y111.625 E1.40454
G1 X135.315 Y114.118 E1.48747
G1 X135.314 Y114.376 E1.49605
G1 X135.295 Y115.224 E1.52427
G1 X135.271 Y117.975 E1.61577
G1 X135.315 Y120.468 E1.6987
G1 X135.314 Y120.726 E1.70728
G1 X135.295 Y121.574 E1.73549
G1 X135.271 Y124.323 E1.82693
G1 X135.316 Y126.816 E1.90986
G1 X135.308 Y127.281 E1.92533
G1 X135.287 Y127.666 E1.93815
G1 X135.208 Y128.376 E1.96191
G1 X135.075 Y128.983 E1.98258
G1 X134.965 Y129.391 E1.99663
G1 X134.741 Y130.07 E2.02041
G1 X134.446 Y130.713 E2.04394
G1 X134.257 Y131.071 E2.05741
G1 X133.888 Y131.684 E2.08121
G1 X133.486 Y132.213 E2.1033
G1 X133.236 Y132.509 E2.11619
G1 X132.745 Y133.028 E2.13995
G1 X132.285 Y133.424 E2.16014
G1 X131.943 Y133.691 E2.17457
G1 X131.356 Y134.099 E2.19835
G1 X130.699 Y134.451 E2.22314
G1 X130.324 Y134.625 E2.23689
G1 X129.659 Y134.89 E2.2607
G1 X129.027 Y135.066 E2.28252
G1 X128.629 Y135.155 E2.29608
G1 X127.923 Y135.272 E2.31989
G1 X127.165 Y135.309 E2.34513
G1 X125.531 Y135.292 E2.39948
G1 X125.416 Y135.289 E2.4033
G1 X125.065 Y135.279 E2.41498
G1 X122.392 Y135.279 E2.50389
G1 X121.064 Y135.312 E2.54807
G1 X120.82 Y135.313 E2.55619
G1 X119.163 Y135.291 E2.6113
G1 X119.066 Y135.289 E2.61453
G1 X118.715 Y135.279 E2.62621
G1 X116.042 Y135.279 E2.71511
G1 X114.714 Y135.312 E2.7593
G1 X114.47 Y135.313 E2.76741
G1 X112.813 Y135.291 E2.82253
G1 X112.716 Y135.289 E2.82576
G1 X112.365 Y135.279 E2.83743
G1 X109.692 Y135.279 E2.92634
G1 X108.364 Y135.312 E2.97052
G1 X108.13 Y135.314 E2.9783
G1 X107.703 Y135.309 E2.99251
G1 X106.989 Y135.26 E3.01631
G1 X106.425 Y135.164 E3.03534
G1 X106.032 Y135.079 E3.04871
G1 X105.343 Y134.889 E3.07249
G1 X104.749 Y134.656 E3.09371
G1 X104.364 Y134.482 E3.10776
G1 X103.73 Y134.152 E3.13153
G1 X103.132 Y133.749 E3.15552
G1 X102.817 Y133.51 E3.16867
G1 X102.272 Y133.046 E3.19247
G1 X101.847 Y132.601 E3.21294
G1 X101.569 Y132.28 E3.22706
G1 X101.132 Y131.714 E3.25085
G1 X100.747 Y131.077 E3.2756
G1 X100.556 Y130.715 E3.28922
G1 X100.258 Y130.064 E3.31303
G1 X100.054 Y129.458 E3.3343
G1 X99.942 Y129.059 E3.34808
G1 X99.788 Y128.36 E3.37189
G1 X99.712 Y127.649 E3.39567
G1 X99.691 Y127.23 E3.40962
G1 X99.684 Y126.8 E3.42393
G1 X99.7 Y125.865 E3.45503
G1 X99.725 Y122.994 E3.55052
G1 X99.698 Y121.834 E3.58912
G1 X99.696 Y121.757 E3.59168
G1 X99.683 Y120.623 E3.6294
G1 X99.684 Y120.437 E3.63558
G1 X99.7 Y119.534 E3.66562
G1 X99.725 Y116.644 E3.76175
G1 X99.698 Y115.484 E3.80034
G1 X99.696 Y115.407 E3.8029
G1 X99.683 Y114.273 E3.84062
G1 X99.684 Y114.087 E3.84681
G1 X99.7 Y113.184 E3.87685
G1 X99.725 Y110.294 E3.97297
G1 X99.698 Y109.134 E4.01156
G1 X99.696 Y109.059 E4.01406
G1 X99.683 Y107.947 E4.05105
G1 X99.715 Y107.232 E4.07485
G1 X99.766 Y106.843 E4.0879
G1 X99.831 Y106.444 E4.10135
G1 X99.986 Y105.746 E4.12513
G1 X100.198 Y105.115 E4.14727
G1 X100.349 Y104.734 E4.1609
G1 X100.65 Y104.085 E4.18469
G1 X100.991 Y103.517 E4.20673
G1 X101.222 Y103.174 E4.22048
G1 X101.654 Y102.604 E4.24427
G1 X102.111 Y102.12 E4.26641
G0 F3600 X102.387 Y102.409
G1 F1800 X102.674 Y102.135 E4.27961
G1 X103.201 Y101.687 E4.30261
G1 X103.705 Y101.345 E4.32287
G1 X104.061 Y101.129 E4.33672
G1 X104.672 Y100.805 E4.35972
G1 X105.258 Y100.573 E4.38069
G1 X105.653 Y100.44 E4.39455
G1 X106.321 Y100.257 E4.41758
G1 X106.909 Y100.162 E4.43739
G1 X107.316 Y100.117 E4.45101
G1 X108.082 Y100.082 E4.47652
G1 X109.435 Y100.106 E4.52153
G1 X111.504 Y100.124 E4.59034
G1 X112.869 Y100.095 E4.63575
G1 X112.938 Y100.094 E4.63805
G1 X114.259 Y100.081 E4.68199
G1 X114.424 Y100.082 E4.68748
G1 X115.785 Y100.106 E4.73275
G1 X117.854 Y100.124 E4.80157
G1 X119.219 Y100.095 E4.84698
G1 X119.288 Y100.094 E4.84927
G1 X120.609 Y100.081 E4.89321
G1 X120.774 Y100.082 E4.8987
G1 X122.135 Y100.106 E4.94397
G1 X124.204 Y100.124 E5.01279
G1 X125.569 Y100.095 E5.0582
G1 X125.638 Y100.094 E5.0605
G1 X126.959 Y100.081 E5.10444
G1 X127.651 Y100.114 E5.12748
G1 X128.091 Y100.178 E5.14227
G1 X128.366 Y100.228 E5.15156
G1 X128.675 Y100.292 E5.16206
G1 X129.165 Y100.408 E5.17881
G1 X129.829 Y100.607 E5.20186
G1 X130.76 Y101.038 E5.23598
G1 X131.159 Y101.266 E5.25127
G1 X131.739 Y101.643 E5.27428
G1 X132.315 Y102.125 E5.29926
G1 X132.596 Y102.392 E5.31215
G1 X133.07 Y102.898 E5.33521
G1 X133.408 Y103.344 E5.35382
G1 X133.632 Y103.67 E5.36698
G1 X133.991 Y104.263 E5.39003
G1 X134.231 Y104.774 E5.40881
G1 X134.394 Y105.168 E5.42299
G1 X134.622 Y105.822 E5.44603
G1 X134.771 Y106.49 E5.46879
G1 X134.837 Y106.892 E5.48234
G1 X134.909 Y107.581 E5.50538
G1 X134.915 Y107.996 E5.51919
G1 X134.894 Y108.949 E5.55089
G1 X134.871 Y111.629 E5.64003
G1 X134.915 Y114.125 E5.72306
G1 X134.914 Y114.367 E5.73111
G1 X134.895 Y115.22 E5.75949
G1 X134.871 Y117.979 E5.85126
G1 X134.915 Y120.475 E5.93429
G1 X134.914 Y120.717 E5.94234
G1 X134.895 Y121.57 E5.97072
G1 X134.871 Y124.326 E6.06238
G1 X134.916 Y126.823 E6.14545
G1 X134.908 Y127.259 E6.15995
G1 X134.887 Y127.644 E6.17278
G1 X134.81 Y128.332 E6.1958
G1 X134.689 Y128.879 E6.21444
G1 X134.579 Y129.287 E6.22849
G1 X134.361 Y129.944 E6.25151
G1 X134.092 Y130.526 E6.27284
G1 X133.903 Y130.884 E6.2863
G1 X133.545 Y131.477 E6.30934
G1 X133.181 Y131.954 E6.3293
G1 X132.931 Y132.25 E6.34219
G1 X132.454 Y132.753 E6.36524
G1 X132.039 Y133.108 E6.38341
G1 X131.697 Y133.375 E6.39784
G1 X131.128 Y133.769 E6.42086
G1 X130.53 Y134.089 E6.44341
G1 X130.155 Y134.263 E6.45716
G1 X129.511 Y134.517 E6.48019
G1 X128.939 Y134.675 E6.49993
G1 X128.541 Y134.764 E6.51349
G1 X127.858 Y134.876 E6.53651
G1 X127.17 Y134.909 E6.55942
G1 X125.536 Y134.892 E6.61377
G1 X125.427 Y134.89 E6.6174
G1 X125.041 Y134.879 E6.63024
G1 X122.382 Y134.879 E6.71868
G1 X121.054 Y134.912 E6.76286
G1 X120.825 Y134.913 E6.77048
G1 X119.168 Y134.891 E6.8256
G1 X119.077 Y134.89 E6.82862
G1 X118.691 Y134.879 E6.84147
G1 X116.032 Y134.879 E6.9299
G1 X114.704 Y134.912 E6.97409
G1 X114.475 Y134.913 E6.9817
G1 X112.818 Y134.891 E7.03682
G1 X112.727 Y134.89 E7.03985
G1 X112.341 Y134.879 E7.05269
G1 X109.682 Y134.879 E7.14113
G1 X108.354 Y134.912 E7.18531
G1 X108.135 Y134.914 E7.1926
G1 X107.708 Y134.909 E7.2068
G1 X107.017 Y134.861 E7.22984
G1 X106.51 Y134.773 E7.24695
G1 X106.117 Y134.688 E7.26033
G1 X105.449 Y134.503 E7.28338
G1 X104.914 Y134.292 E7.30251
G1 X104.529 Y134.118 E7.31656
G1 X103.915 Y133.796 E7.33962
G1 X103.373 Y133.43 E7.36137
G1 X103.058 Y133.191 E7.37452
G1 X102.532 Y132.741 E7.39755
G1 X102.149 Y132.339 E7.41602
G1 X101.871 Y132.018 E7.43014
G1 X101.449 Y131.469 E7.45317
G1 X101.1 Y130.89 E7.47566
G1 X100.909 Y130.528 E7.48927
G1 X100.622 Y129.898 E7.51229
G1 X100.439 Y129.35 E7.53151
G1 X100.327 Y128.951 E7.54529
G1 X100.179 Y128.274 E7.56834
G1 X100.112 Y127.629 E7.58991
G1 X100.091 Y127.21 E7.60387
G1 X100.084 Y126.807 E7.61727
G1 X100.1 Y125.868 E7.64851
G1 X100.125 Y122.988 E7.7443
G1 X100.098 Y121.825 E7.78299
G1 X100.096 Y121.753 E7.78539
G1 X100.083 Y120.619 E7.82311
G1 X100.084 Y120.444 E7.82893
G1 X100.1 Y119.539 E7.85903
G1 X100.125 Y116.639 E7.95549
G1 X100.098 Y115.475 E7.99422
G1 X100.096 Y115.403 E7.99661
G1 X100.083 Y114.269 E8.03433
G1 X100.084 Y114.094 E8.04015
G1 X100.1 Y113.189 E8.07026
G1 X100.125 Y110.289 E8.16671
G1 X100.098 Y109.125 E8.20544
G1 X100.096 Y109.054 E8.2078
G1 X100.083 Y107.942 E8.24479
G1 X100.161 Y106.907 E8.27931
G1 X100.226 Y106.508 E8.29276
G1 X100.377 Y105.832 E8.3158
G1 X100.57 Y105.262 E8.33581
G1 X100.721 Y104.881 E8.34944
G1 X101.013 Y104.253 E8.37248
G1 X101.322 Y103.74 E8.3924
G1 X101.553 Y103.397 E8.40615
G1 X101.973 Y102.846 E8.42919
G1 X102.387 Y102.409 E8.44921
G0 F3600 X102.663 Y102.699
G1 F1800 X102.95 Y102.425 E8.46241
G1 X103.461 Y101.992 E8.48469
G1 X103.912 Y101.687 E8.5028
G1 X104.268 Y101.471 E8.51665
G1 X104.86 Y101.159 E8.5389
G1 X105.386 Y100.952 E8.5577
G1 X105.781 Y100.819 E8.57157
G1 X106.427 Y100.644 E8.59383
G1 X106.953 Y100.56 E8.61154
G1 X107.36 Y100.515 E8.62516
G1 X108.074 Y100.482 E8.64894
G1 X109.431 Y100.506 E8.69408
G1 X111.508 Y100.524 E8.76316
G1 X112.877 Y100.495 E8.80871
G1 X112.942 Y100.494 E8.81087
G1 X114.263 Y100.481 E8.85481
G1 X114.417 Y100.482 E8.85993
G1 X115.781 Y100.506 E8.9053
G1 X117.858 Y100.524 E8.97439
G1 X119.227 Y100.495 E9.01993
G1 X119.292 Y100.494 E9.02209
G1 X120.613 Y100.481 E9.06603
G1 X120.767 Y100.482 E9.07115
G1 X122.131 Y100.506 E9.11653
G1 X124.208 Y100.524 E9.18561
G1 X125.577 Y100.495 E9.23115
G1 X125.642 Y100.494 E9.23332
G1 X126.963 Y100.481 E9.27725
G1 X127.631 Y100.515 E9.2995
G1 X128.02 Y100.571 E9.31257
G1 X128.295 Y100.621 E9.32187
G1 X128.583 Y100.682 E9.33166
G1 X129.073 Y100.798 E9.34841
G1 X129.714 Y100.99 E9.37066
G1 X130.561 Y101.385 E9.40175
G1 X130.96 Y101.613 E9.41703
G1 X131.52 Y101.979 E9.43928
G1 X132.039 Y102.415 E9.46183
G1 X132.32 Y102.682 E9.47472
G1 X132.777 Y103.171 E9.49698
G1 X133.078 Y103.571 E9.51363
G1 X133.302 Y103.897 E9.52679
G1 X133.648 Y104.47 E9.54905
G1 X133.862 Y104.927 E9.56583
G1 X134.025 Y105.321 E9.58002
G1 X134.243 Y105.954 E9.60228
G1 X134.376 Y106.555 E9.62276
G1 X134.442 Y106.957 E9.63631
G1 X134.511 Y107.622 E9.65854
G1 X134.515 Y107.987 E9.67068
G1 X134.494 Y108.94 E9.70239
G1 X134.471 Y111.632 E9.79193
G1 X134.515 Y114.132 E9.87509
G1 X134.515 Y114.358 E9.88261
G1 X134.494 Y115.293 E9.91371
G1 X134.471 Y117.982 E10.00315
G1 X134.515 Y120.482 E10.08632
G1 X134.515 Y120.708 E10.09383
G1 X134.494 Y121.643 E10.12494
G1 X134.471 Y124.33 E10.21431
G1 X134.516 Y126.83 E10.29748
G1 X134.509 Y127.237 E10.31102
G1 X134.488 Y127.622 E10.32384
G1 X134.411 Y128.287 E10.34611
G1 X134.303 Y128.775 E10.36273
G1 X134.193 Y129.183 E10.37678
G1 X133.981 Y129.817 E10.39902
G1 X133.738 Y130.339 E10.41817
G1 X133.549 Y130.697 E10.43163
G1 X133.202 Y131.269 E10.45389
G1 X132.875 Y131.696 E10.47177
G1 X132.625 Y131.992 E10.48466
G1 X132.164 Y132.477 E10.50692
G1 X131.793 Y132.793 E10.52313
G1 X131.451 Y133.06 E10.53756
G1 X130.9 Y133.44 E10.55982
G1 X130.362 Y133.726 E10.58008
G1 X129.987 Y133.9 E10.59383
G1 X129.364 Y134.145 E10.6161
G1 X128.852 Y134.285 E10.63375
G1 X128.454 Y134.374 E10.64732
G1 X127.794 Y134.481 E10.66956
G1 X127.174 Y134.509 E10.6902
G1 X125.54 Y134.492 E10.74455
G1 X125.438 Y134.49 E10.74794
G1 X125.052 Y134.479 E10.76078
G1 X122.372 Y134.479 E10.84992
G1 X121.044 Y134.512 E10.89411
G1 X120.831 Y134.514 E10.90119
G1 X119.174 Y134.492 E10.95631
G1 X119.088 Y134.49 E10.95917
G1 X118.702 Y134.479 E10.97201
G1 X116.022 Y134.479 E11.06115
G1 X114.694 Y134.512 E11.10533
G1 X114.481 Y134.514 E11.11242
G1 X112.824 Y134.492 E11.16753
G1 X112.738 Y134.49 E11.17039
G1 X112.352 Y134.479 E11.18324
G1 X109.672 Y134.479 E11.27238
G1 X108.344 Y134.512 E11.31656
G1 X108.139 Y134.514 E11.32338
G1 X107.712 Y134.509 E11.33758
G1 X107.045 Y134.461 E11.35982
G1 X106.594 Y134.382 E11.37505
G1 X106.201 Y134.297 E11.38842
G1 X105.557 Y134.117 E11.41066
G1 X105.079 Y133.927 E11.42777
G1 X104.694 Y133.753 E11.44183
G1 X104.102 Y133.442 E11.46407
G1 X103.615 Y133.111 E11.48365
G1 X103.3 Y132.872 E11.4968
G1 X102.792 Y132.437 E11.51905
G1 X102.452 Y132.077 E11.53552
G1 X102.174 Y131.756 E11.54964
G1 X101.767 Y131.225 E11.57189
G1 X101.454 Y130.703 E11.59214
G1 X101.263 Y130.341 E11.60575
G1 X100.987 Y129.732 E11.62799
G1 X100.824 Y129.241 E11.6452
G1 X100.712 Y128.842 E11.65898
G1 X100.57 Y128.189 E11.68121
G1 X100.511 Y127.609 E11.7006
G1 X100.49 Y127.19 E11.71455
G1 X100.484 Y126.814 E11.72706
G1 X100.5 Y125.872 E11.75839
G1 X100.525 Y122.982 E11.85452
G1 X100.498 Y121.815 E11.89334
G1 X100.496 Y121.748 E11.89557
G1 X100.483 Y120.614 E11.93329
G1 X100.484 Y120.451 E11.93871
G1 X100.5 Y119.542 E11.96895
G1 X100.525 Y116.632 E12.06574
G1 X100.498 Y115.465 E12.10457
G1 X100.496 Y115.398 E12.1068
G1 X100.483 Y114.264 E12.14452
G1 X100.484 Y114.101 E12.14994
G1 X100.5 Y113.192 E12.18018
G1 X100.525 Y110.282 E12.27697
G1 X100.498 Y109.115 E12.31579
G1 X100.496 Y109.049 E12.31799
G1 X100.483 Y107.937 E12.35498
G1 X100.556 Y106.972 E12.38716
G1 X100.621 Y106.573 E12.40061
G1 X100.768 Y105.92 E12.42287
G1 X100.942 Y105.41 E12.44079
G1 X101.093 Y105.029 E12.45442
G1 X101.376 Y104.423 E12.47667
G1 X101.654 Y103.964 E12.49452
G1 X101.885 Y103.621 E12.50827
G1 X102.291 Y103.089 E12.53053
G1 X102.663 Y102.699 E12.54846
G0 F3600 X102.939 Y102.988
G1 F1800 X103.226 Y102.714 E12.56165
G1 X103.719 Y102.298 E12.58311
G1 X104.12 Y102.029 E12.59917
G1 X104.476 Y101.813 E12.61302
G1 X105.046 Y101.514 E12.63443
G1 X105.514 Y101.331 E12.65114
G1 X105.909 Y101.198 E12.665
G1 X106.531 Y101.03 E12.68643
G1 X106.997 Y100.957 E12.70212
G1 X107.404 Y100.912 E12.71574
G1 X108.067 Y100.882 E12.73781
G1 X109.428 Y100.906 E12.78309
G1 X111.514 Y100.924 E12.85247
G1 X112.886 Y100.895 E12.89811
G1 X112.946 Y100.894 E12.90011
G1 X114.267 Y100.881 E12.94405
G1 X114.41 Y100.882 E12.94881
G1 X115.778 Y100.906 E12.99431
G1 X117.864 Y100.924 E13.0637
G1 X119.236 Y100.895 E13.10934
G1 X119.296 Y100.894 E13.11133
G1 X120.617 Y100.881 E13.15527
G1 X120.76 Y100.882 E13.16003
G1 X122.128 Y100.906 E13.20554
G1 X124.214 Y100.924 E13.27492
G1 X125.586 Y100.895 E13.32056
G1 X125.646 Y100.894 E13.32256
G1 X126.967 Y100.881 E13.3665
G1 X127.611 Y100.915 E13.38795
G1 X127.948 Y100.965 E13.39928
G1 X128.223 Y101.015 E13.40857
G1 X128.491 Y101.071 E13.41768
G1 X128.981 Y101.187 E13.43443
G1 X129.598 Y101.374 E13.45587
G1 X130.363 Y101.732 E13.48396
G1 X130.762 Y101.96 E13.49925
G1 X131.301 Y102.314 E13.5207
G1 X131.764 Y102.705 E13.54085
G1 X132.045 Y102.972 E13.55375
G1 X132.484 Y103.445 E13.57521
G1 X132.749 Y103.797 E13.58986
G1 X132.973 Y104.123 E13.60302
G1 X133.304 Y104.676 E13.62446
G1 X133.492 Y105.08 E13.63928
G1 X133.655 Y105.474 E13.65346
G1 X133.864 Y106.084 E13.6749
G1 X133.981 Y106.62 E13.69315
